X: 27321
T: Mist Covered Mountain, The
R: jig
M: 6/8
K: Adorian
E|A2A ABd|edB dBA|G2G GAB|dBA GEG|
A2A ABd|edB ABd|efg dBG|BAA A2:|
e|age a2b|age edB|AGE G2A|BAG ABd|
age a2b|age edB|AGE G2A|BAG ABd|
age a2b|age edB|AGE G2A|BAG ABG|
EDE G2A|BAG ABd|efg dBG|BAG A2||

